dist/img/box-white.svg

<?xml version="1.0" encoding="UTF-8"?>
<svg width="53px" height="53px" viewBox="0 0 53 53" version="1.1" xmlns="http://www.w3.org/2000/svg" xmlns:xlink="http://www.w3.org/1999/xlink">
    <!-- Generator: sketchtool 52.5 (67469) - http://www.bohemiancoding.com/sketch -->
    <title>0357E31C-C8EB-4236-BE3F-EA1DB641D41A</title>
    <desc>Created with sketchtool.</desc>
    <g id="Page-1" stroke="none" stroke-width="1" fill="none" fill-rule="evenodd">
        <g id="desktop" transform="translate(-754.000000, -2080.000000)" fill="#FFFFFF" fill-rule="nonzero">
            <path d="M780.193343,2080.00211 C780.153577,2080.01321 780.114385,2080.02628 780.075909,2080.04125 L762.773935,2080.04125 C762.734812,2080.03942 762.695624,2080.03942 762.656501,2080.04125 C762.617378,2080.03942 762.57819,2080.03942 762.539067,2080.04125 C762.336527,2080.08582 762.148219,2080.17997 761.99104,2080.31526 L754.592685,2086.50013 L754.475251,2086.57842 C754.420075,2086.61342 754.367723,2086.65269 754.318672,2086.69586 C754.305337,2086.70861 754.292286,2086.72167 754.279527,2086.735 C754.279323,2086.74805 754.279323,2086.7611 754.279527,2086.77415 C754.26648,2086.77394 754.25343,2086.77394 754.240383,2086.77415 C754.239567,2086.80024 754.239567,2086.82635 754.240383,2086.85244 C754.2121,2086.89008 754.185962,2086.92928 754.162093,2086.96987 C754.114832,2087.04383 754.075471,2087.12255 754.044659,2087.20474 C754.024183,2087.28161 754.011076,2087.36025 754.005514,2087.43961 C753.998162,2087.51772 753.998162,2087.59636 754.005514,2087.67447 L754.005514,2131.39915 C754.005583,2132.09093 754.566365,2132.65171 755.258146,2132.65178 L805.363409,2132.65178 C806.05519,2132.65171 806.615971,2132.09093 806.61604,2131.39915 L806.61604,2087.75276 C806.621143,2087.68762 806.621143,2087.62218 806.61604,2087.55704 C806.616856,2087.53095 806.616856,2087.50484 806.61604,2087.47875 C806.616244,2087.4657 806.616244,2087.45265 806.61604,2087.43961 C806.616856,2087.41352 806.616856,2087.38741 806.61604,2087.36132 C806.603282,2087.34798 806.590231,2087.33493 806.576896,2087.32217 C806.577711,2087.29608 806.577711,2087.26997 806.576896,2087.24388 C806.5771,2087.23084 806.5771,2087.21779 806.576896,2087.20474 C806.564763,2087.17819 806.551707,2087.15208 806.537751,2087.12645 C806.524993,2087.11311 806.511941,2087.10006 806.498606,2087.0873 C806.499422,2087.06121 806.499422,2087.0351 806.498606,2087.00901 C806.485848,2086.99568 806.472796,2086.98263 806.459462,2086.96987 C806.447329,2086.94333 806.434273,2086.91721 806.420317,2086.89158 C806.407558,2086.87825 806.394507,2086.86519 806.381172,2086.85244 C806.368414,2086.8391 806.355362,2086.82605 806.342027,2086.81329 C806.329895,2086.78675 806.316838,2086.76063 806.302883,2086.735 C806.290124,2086.72167 806.277073,2086.70861 806.263738,2086.69586 C806.250979,2086.68252 806.237928,2086.66947 806.224593,2086.65671 C806.211835,2086.64338 806.198783,2086.63033 806.185448,2086.61757 C806.17269,2086.60423 806.159639,2086.59118 806.146304,2086.57842 L806.028869,2086.50013 C806.003939,2086.4729 805.977817,2086.44677 805.95058,2086.42184 L798.630514,2080.31526 C798.408235,2080.13768 798.132128,2080.04104 797.847619,2080.04125 L780.58479,2080.04125 C780.457184,2080.00767 780.325073,2079.99446 780.193343,2080.00211 Z M763.243672,2082.54651 L779.058146,2082.54651 L779.058146,2086.30441 L758.742027,2086.30441 L763.243672,2082.54651 Z M781.563409,2082.54651 L797.377883,2082.54651 L801.879527,2086.30441 L781.563409,2086.30441 L781.563409,2082.54651 Z M756.510777,2088.80967 L804.110777,2088.80967 L804.110777,2130.14651 L756.510777,2130.14651 L756.510777,2088.80967 Z M775.926567,2093.8202 C774.19376,2093.8202 772.794988,2095.21897 772.794988,2096.95178 C772.794988,2098.68458 774.19376,2100.08336 775.926567,2100.08336 L784.694988,2100.08336 C786.427794,2100.08336 787.826567,2098.68458 787.826567,2096.95178 C787.826567,2095.21897 786.427794,2093.8202 784.694988,2093.8202 L775.926567,2093.8202 Z M775.926567,2096.32546 L784.694988,2096.32546 C784.966392,2096.32546 785.321304,2096.68037 785.321304,2096.95178 C785.321304,2097.22318 784.966392,2097.57809 784.694988,2097.57809 L775.926567,2097.57809 C775.655163,2097.57809 775.300251,2097.22318 775.300251,2096.95178 C775.300251,2096.68037 775.655163,2096.32546 775.926567,2096.32546 Z M787.826567,2113.8623 L784.068672,2117.6202 L786.573935,2117.6202 L786.573935,2122.63072 L789.079198,2122.63072 L789.079198,2117.6202 L791.584462,2117.6202 L787.826567,2113.8623 Z M796.594988,2113.8623 L792.837093,2117.6202 L795.342356,2117.6202 L795.342356,2122.63072 L797.847619,2122.63072 L797.847619,2117.6202 L800.352883,2117.6202 L796.594988,2113.8623 Z M784.068672,2123.88336 L784.068672,2126.38862 L800.352883,2126.38862 L800.352883,2123.88336 L784.068672,2123.88336 Z" id="Shape"></path>
        </g>
    </g>
</svg>

<svg width="53" height="53" viewBox="0 0 53 53" xmlns="http://www.w3.org/2000/svg" xmlns:xlink="http://www.w3.org/1999/xlink"><g id="Page-1" stroke="none" stroke-width="1" fill="none" fill-rule="evenodd"><g id="desktop" transform="translate(-754 -2080)" fill="#FFF" fill-rule="nonzero"><path d="M780.193 2080.002a.949.949 0 0 0-.117.04h-17.302a1.257 1.257 0 0 0-.117 0 1.257 1.257 0 0 0-.118 0c-.202.044-.39.138-.548.273l-7.398 6.185-.118.078a1.252 1.252 0 0 0-.195.157v.04h-.04v.077a1.252 1.252 0 0 0-.078.118 1.253 1.253 0 0 0-.117.235c-.02.077-.034.155-.04.235a1.253 1.253 0 0 0 0 .234v43.725c0 .692.561 1.253 1.253 1.253h50.105c.692 0 1.253-.561 1.253-1.253v-43.646c.005-.065.005-.13 0-.196a1.252 1.252 0 0 0 0-.117v-.079a1.249 1.249 0 0 0-.04-.039 1.254 1.254 0 0 0 0-.117 1.251 1.251 0 0 0-.038-.079 1.249 1.249 0 0 0-.04-.039v-.078a1.26 1.26 0 0 0-.039-.04 1.254 1.254 0 0 0-.039-.077 1.25 1.25 0 0 0-.078-.079 1.254 1.254 0 0 0-.04-.078 1.25 1.25 0 0 0-.077-.078 1.26 1.26 0 0 0-.079-.079l-.117-.078a1.255 1.255 0 0 0-.078-.078l-7.32-6.107a1.253 1.253 0 0 0-.783-.274h-17.263a1.253 1.253 0 0 0-.392-.039zm-16.95 2.545h15.815v3.757h-20.316l4.502-3.757zm18.32 0h15.815l4.502 3.757h-20.317v-3.757zm-25.052 6.263h47.6v41.337h-47.6v-41.337zm19.416 5.01a3.127 3.127 0 0 0-3.132 3.132 3.127 3.127 0 0 0 3.132 3.131h8.768a3.127 3.127 0 0 0 3.132-3.131 3.127 3.127 0 0 0-3.132-3.132h-8.768zm0 2.505h8.768c.271 0 .626.355.626.627 0 .271-.355.626-.626.626h-8.768c-.272 0-.627-.355-.627-.626 0-.272.355-.627.627-.627zm11.9 17.537l-3.758 3.758h2.505v5.01h2.505v-5.01h2.505l-3.757-3.758zm8.768 0l-3.758 3.758h2.505v5.01h2.506v-5.01h2.505l-3.758-3.758zm-12.526 10.021v2.506h16.284v-2.506h-16.284z" id="Shape"/></g></g></svg>
